assets/img/where-to-meet/ahic.svg

<?xml version="1.0" encoding="UTF-8"?>
<svg width="335px" height="182px" viewBox="0 0 335 182" version="1.1" xmlns="http://www.w3.org/2000/svg" xmlns:xlink="http://www.w3.org/1999/xlink">
    <!-- Generator: Sketch 49.2 (51160) - http://www.bohemiancoding.com/sketch -->
    <title>AHIC-logo-rev</title>
    <desc>Created with Sketch.</desc>
    <defs></defs>
    <g id="UI-elements" stroke="none" stroke-width="1" fill="none" fill-rule="evenodd">
        <g id="Desktop-HD" transform="translate(-875.000000, -51.000000)">
            <g id="AHIC-logo-rev" transform="translate(875.000000, 51.000000)">
                <polygon id="Fill-1" fill="#FFFFFF" points="153.454 181.905 154.7461 181.905 154.7461 0 153.454 0"></polygon>
                <path d="M50.9862,160.0296 C49.6666,160.0296 48.4124,159.4554 47.5503,158.4565 C23.799,130.9191 2.4765,100.1589 38.6125,30.688 C38.8023,30.312 39.2291,30.122 39.6352,30.231 C40.0414,30.339 40.3155,30.718 40.2922,31.138 C35.7692,101.0856 70.9708,125.0975 84.6216,160.0296 C84.6216,160.0296 58.6061,160.0296 50.9862,160.0296 Z" id="Fill-3" fill="#ED7F38"></path>
                <path d="M13.8537,160.0296 C12.5008,160.0297 11.2251,159.3996 10.403,158.3252 C-0.9763,143.3768 -6.0948,126.53 11.2721,87.4327 C11.395,87.1484 11.7013,86.9901 12.0043,87.0543 C12.3074,87.1185 12.5232,87.3873 12.5203,87.697 C12.0699,120.2817 25.6223,138.5435 37.0632,157.9805 C37.3096,158.4014 37.3119,158.922 37.0693,159.3451 C36.8267,159.7683 36.3762,160.0292 35.8885,160.0292 C30.7673,160.0296 18.7361,160.0296 13.8537,160.0296 Z" id="Fill-4" fill="#951E5C"></path>
                <path d="M97.5545,157.6854 C96.8768,159.1157 95.4357,160.0276 93.8529,160.0276 C85.196,160.0296 57.706,160.0296 57.706,160.0296 C76.1294,121.9909 88.7834,80.046 60.1324,17.784 C59.9523,17.388 60.0822,16.919 60.4406,16.673 C60.7991,16.426 61.2828,16.472 61.5883,16.782 C119.33,74.247 116.505,117.4521 97.5545,157.6854 Z" id="Fill-5" fill="#348AA5"></path>
                <path d="M183.104,48.634 L191.555,48.634 L192.645,44.878 L200.082,44.878 L201.209,48.634 L209.811,48.634 L200.721,22.19 L192.194,22.19 L183.104,48.634 Z M194.41,38.868 L196.363,32.031 L198.354,38.868 L194.41,38.868 Z" id="Fill-6" fill="#FFFFFF"></path>
                <polygon id="Fill-7" fill="#FFFFFF" points="211.967 48.634 220.081 48.634 220.081 39.018 226.429 39.018 226.429 48.634 234.543 48.634 234.543 22.34 226.429 22.34 226.429 31.806 220.081 31.806 220.081 22.34 211.967 22.34"></polygon>
                <polygon id="Fill-8" fill="#FFFFFF" points="238.648 48.634 246.7617 48.634 246.7617 22.3397 238.648 22.3397"></polygon>
                <path d="M262.327,49.16 C267.436,49.16 270.554,46.756 272.469,43.939 L266.985,39.093 C266.121,40.446 264.919,41.648 262.816,41.648 C260.374,41.648 258.383,39.694 258.383,35.525 L258.383,35.375 C258.383,31.506 260.224,29.327 262.778,29.327 C264.807,29.327 266.009,30.491 266.835,31.806 L272.319,26.773 C270.216,23.768 267.098,21.814 262.628,21.814 C255.754,21.814 250.119,27.036 250.119,35.224 L250.119,35.863 C250.119,44.202 255.754,49.16 262.327,49.16 Z" id="Fill-9" fill="#FFFFFF"></path>
                <path d="M184.038,82.2287 L186.76,82.2287 L188.109,78.39 L194.437,78.39 L195.787,82.2287 L198.602,82.2287 L192.623,65.85 L190.017,65.85 L184.038,82.2287 Z M188.947,75.993 L191.273,69.456 L193.6,75.993 L188.947,75.993 Z" id="Fill-10" fill="#FFFFFF"></path>
                <path d="M201.704,82.2287 L204.403,82.2287 L204.403,76.482 L207.009,76.482 C207.055,76.482 207.125,76.482 207.171,76.459 L210.638,82.2287 L213.756,82.2287 L209.917,75.924 C211.894,75.226 213.29,73.667 213.29,71.154 L213.29,71.061 C213.29,69.572 212.802,68.339 211.941,67.478 C210.964,66.501 209.451,65.943 207.59,65.943 L201.704,65.943 L201.704,82.2287 Z M204.403,74.062 L204.403,68.409 L207.358,68.409 C209.382,68.409 210.568,69.363 210.568,71.201 L210.568,71.247 C210.568,72.946 209.405,74.062 207.311,74.062 L204.403,74.062 Z" id="Fill-11" fill="#FFFFFF"></path>
                <path d="M216.562,82.2287 L219.285,82.2287 L220.634,78.39 L226.962,78.39 L228.312,82.2287 L231.127,82.2287 L225.148,65.85 L222.542,65.85 L216.562,82.2287 Z M221.472,75.993 L223.798,69.456 L226.125,75.993 L221.472,75.993 Z" id="Fill-12" fill="#FFFFFF"></path>
                <path d="M234.229,82.2287 L240.208,82.2287 C243.675,82.2287 246.001,80.647 246.001,77.785 L246.001,77.692 C246.001,75.505 244.698,74.435 242.907,73.806 C244.14,73.202 245.303,72.155 245.303,70.154 L245.303,70.084 C245.303,68.967 244.931,68.06 244.21,67.339 C243.302,66.431 241.813,65.943 240.045,65.943 L234.229,65.943 L234.229,82.2287 Z M242.604,70.572 C242.604,72.085 241.464,72.876 239.696,72.876 L236.881,72.876 L236.881,68.362 L239.859,68.362 C241.604,68.362 242.604,69.153 242.604,70.526 L242.604,70.572 Z M243.302,77.459 L243.302,77.506 C243.302,78.995 242.139,79.809 240.278,79.809 L236.881,79.809 L236.881,75.156 L240.161,75.156 C242.209,75.156 243.302,76.04 243.302,77.459 Z" id="Fill-13" fill="#FFFFFF"></path>
                <polygon id="Fill-14" fill="#FFFFFF" points="249.873 82.2287 252.5718 82.2287 252.5718 65.9426 249.873 65.9426"></polygon>
                <path d="M255.79,82.2287 L258.512,82.2287 L259.862,78.39 L266.19,78.39 L267.54,82.2287 L270.355,82.2287 L264.375,65.85 L261.77,65.85 L255.79,82.2287 Z M260.699,75.993 L263.026,69.456 L265.353,75.993 L260.699,75.993 Z" id="Fill-15" fill="#FFFFFF"></path>
                <polygon id="Fill-16" fill="#FFFFFF" points="273.457 82.2287 276.109 82.2287 276.109 71.038 283.484 82.2287 285.764 82.2287 285.764 65.943 283.135 65.943 283.135 76.808 275.969 65.943 273.457 65.943"></polygon>
                <polygon id="Fill-17" fill="#FFFFFF" points="185.247 108.077 187.946 108.077 187.946 101.1438 194.344 101.1438 194.344 108.077 197.043 108.077 197.043 91.7909 194.344 91.7909 194.344 98.6311 187.946 98.6311 187.946 91.7909 185.247 91.7909"></polygon>
                <path d="M208.174,108.3329 C212.432,108.3329 215.41,104.8663 215.41,100.027 L215.41,99.7944 C215.41,94.9783 212.455,91.535 208.221,91.535 C203.963,91.535 200.985,95.0016 200.985,99.8409 L200.985,100.0736 C200.985,104.8896 203.94,108.3329 208.174,108.3329 Z M208.221,105.8435 C205.662,105.8435 203.777,103.4936 203.777,100.0038 L203.777,99.8409 C203.777,96.3278 205.615,94.0245 208.174,94.0245 C210.757,94.0245 212.618,96.3743 212.618,99.8642 L212.618,100.027 C212.618,103.5402 210.78,105.8435 208.221,105.8435 Z" id="Fill-18" fill="#FFFFFF"></path>
                <polygon id="Fill-19" fill="#FFFFFF" points="221.986 108.077 224.685 108.077 224.685 94.3036 228.966 94.3036 228.966 91.7909 217.705 91.7909 217.705 94.3036 221.986 94.3036"></polygon>
                <polygon id="Fill-20" fill="#FFFFFF" points="232.277 108.077 242.654 108.077 242.654 105.6341 234.953 105.6341 234.953 101.0973 241.677 101.0973 241.677 98.6544 234.953 98.6544 234.953 94.2338 242.538 94.2338 242.538 91.7909 232.277 91.7909"></polygon>
                <polygon id="Fill-21" fill="#FFFFFF" points="246.397 108.077 256.075 108.077 256.075 105.5876 249.096 105.5876 249.096 91.7909 246.397 91.7909"></polygon>
                <polygon id="Fill-22" fill="#FFFFFF" points="185.387 133.9253 188.0858 133.9253 188.0858 117.6392 185.387 117.6392"></polygon>
                <polygon id="Fill-23" fill="#FFFFFF" points="192.772 133.9253 195.425 133.9253 195.425 122.7345 202.8 133.9253 205.08 133.9253 205.08 117.6393 202.451 117.6393 202.451 128.5044 195.285 117.6393 192.772 117.6393"></polygon>
                <polygon id="Fill-24" fill="#FFFFFF" points="213.835 134.0184 216.325 134.0184 221.955 117.6393 219.117 117.6393 215.115 129.9469 211.113 117.6393 208.182 117.6393"></polygon>
                <polygon id="Fill-25" fill="#FFFFFF" points="225.057 133.9253 235.434 133.9253 235.434 131.4824 227.733 131.4824 227.733 126.9456 234.456 126.9456 234.456 124.5027 227.733 124.5027 227.733 120.0822 235.317 120.0822 235.317 117.6393 225.057 117.6393"></polygon>
                <path d="M244.416,134.1347 C247.464,134.1347 249.698,132.2967 249.698,129.435 L249.698,129.3885 C249.698,127.0154 248.302,125.759 245.277,124.5957 C242.508,123.5255 241.904,122.9206 241.904,121.7806 L241.904,121.7573 C241.904,120.6871 242.811,119.8728 244.277,119.8728 C245.58,119.8728 246.813,120.501 247.929,121.4083 L249.465,119.3377 C247.976,118.0348 246.231,117.4299 244.346,117.4299 C241.322,117.4299 239.181,119.3144 239.181,121.99 L239.181,122.0365 C239.181,124.6423 240.787,125.7823 243.881,126.9456 C246.464,127.8995 246.999,128.5742 246.999,129.5979 L246.999,129.6212 C246.999,130.831 245.998,131.6918 244.439,131.6918 C242.718,131.6918 241.368,130.8543 240.159,129.7608 L238.53,131.7849 C240.298,133.4135 242.322,134.1347 244.416,134.1347 Z" id="Fill-26" fill="#FFFFFF"></path>
                <polygon id="Fill-27" fill="#FFFFFF" points="256.757 133.9253 259.456 133.9253 259.456 120.152 263.737 120.152 263.737 117.6393 252.476 117.6393 252.476 120.152 256.757 120.152"></polygon>
                <polygon id="Fill-28" fill="#FFFFFF" points="267.048 133.9253 269.677 133.9253 269.677 122.4553 273.981 129.9469 274.051 129.9469 278.379 122.4088 278.379 133.9253 281.054 133.9253 281.054 117.6393 278.216 117.6393 274.051 125.1309 269.863 117.6393 267.048 117.6393"></polygon>
                <polygon id="Fill-29" fill="#FFFFFF" points="285.601 133.9253 295.977 133.9253 295.977 131.4824 288.276 131.4824 288.276 126.9456 295 126.9456 295 124.5027 288.276 124.5027 288.276 120.0822 295.861 120.0822 295.861 117.6393 285.601 117.6393"></polygon>
                <polygon id="Fill-30" fill="#FFFFFF" points="299.85 133.9253 302.502 133.9253 302.502 122.7345 309.877 133.9253 312.157 133.9253 312.157 117.6393 309.528 117.6393 309.528 128.5044 302.362 117.6393 299.85 117.6393"></polygon>
                <polygon id="Fill-31" fill="#FFFFFF" points="319.726 133.9253 322.425 133.9253 322.425 120.152 326.706 120.152 326.706 117.6393 315.445 117.6393 315.445 120.152 319.726 120.152"></polygon>
                <path d="M191.785,160.0063 C194.042,160.0063 195.694,159.1688 197.113,157.703 L195.531,155.7952 C194.507,156.7724 193.484,157.4936 191.925,157.4936 C189.366,157.4936 187.434,155.1903 187.434,151.6539 L187.434,151.5608 C187.434,148.0942 189.366,145.7677 191.925,145.7677 C193.391,145.7677 194.461,146.4656 195.415,147.3497 L197.043,145.2791 C195.717,144.0692 194.205,143.2549 191.925,143.2549 C187.714,143.2549 184.643,146.6285 184.643,151.5608 L184.643,151.7237 C184.643,156.7026 187.621,160.0063 191.785,160.0063 Z" id="Fill-32" fill="#FFFFFF"></path>
                <path d="M206.574,160.0296 C210.832,160.0296 213.81,156.563 213.81,151.7237 L213.81,151.491 C213.81,146.675 210.855,143.2317 206.621,143.2317 C202.363,143.2317 199.385,146.6983 199.385,151.5376 L199.385,151.7702 C199.385,156.5863 202.34,160.0296 206.574,160.0296 Z M206.621,157.5402 C204.062,157.5402 202.177,155.1903 202.177,151.7004 L202.177,151.5376 C202.177,148.0244 204.015,145.7211 206.574,145.7211 C209.157,145.7211 211.018,148.071 211.018,151.5608 L211.018,151.7237 C211.018,155.2368 209.18,157.5402 206.621,157.5402 Z" id="Fill-33" fill="#FFFFFF"></path>
                <polygon id="Fill-34" fill="#FFFFFF" points="217.775 159.7737 220.427 159.7737 220.427 148.5828 227.803 159.7737 230.083 159.7737 230.083 143.4876 227.454 143.4876 227.454 154.3527 220.288 143.4876 217.775 143.4876"></polygon>
                <polygon id="Fill-35" fill="#FFFFFF" points="234.653 159.7737 237.352 159.7737 237.352 153.0266 244.006 153.0266 244.006 150.5604 237.352 150.5604 237.352 145.977 244.867 145.977 244.867 143.4876 234.653 143.4876"></polygon>
                <polygon id="Fill-36" fill="#FFFFFF" points="248.142 159.7737 258.518 159.7737 258.518 157.3308 250.817 157.3308 250.817 152.7939 257.541 152.7939 257.541 150.351 250.817 150.351 250.817 145.9305 258.402 145.9305 258.402 143.4876 248.142 143.4876"></polygon>
                <path d="M262.39,159.7737 L265.089,159.7737 L265.089,154.027 L267.695,154.027 C267.741,154.027 267.811,154.027 267.858,154.0038 L271.324,159.7737 L274.442,159.7737 L270.603,153.4686 C272.581,152.7707 273.977,151.2119 273.977,148.6991 L273.977,148.6061 C273.977,147.1171 273.488,145.884 272.627,145.0231 C271.65,144.046 270.138,143.4876 268.277,143.4876 L262.39,143.4876 L262.39,159.7737 Z M265.089,151.6074 L265.089,145.9538 L268.044,145.9538 C270.068,145.9538 271.255,146.9077 271.255,148.7457 L271.255,148.7922 C271.255,150.4906 270.091,151.6074 267.997,151.6074 L265.089,151.6074 Z" id="Fill-37" fill="#FFFFFF"></path>
                <polygon id="Fill-38" fill="#FFFFFF" points="277.942 159.7737 288.318 159.7737 288.318 157.3308 280.617 157.3308 280.617 152.7939 287.341 152.7939 287.341 150.351 280.617 150.351 280.617 145.9305 288.202 145.9305 288.202 143.4876 277.942 143.4876"></polygon>
                <polygon id="Fill-39" fill="#FFFFFF" points="292.191 159.7737 294.843 159.7737 294.843 148.5828 302.218 159.7737 304.498 159.7737 304.498 143.4876 301.869 143.4876 301.869 154.3527 294.703 143.4876 292.191 143.4876"></polygon>
                <path d="M315.606,160.0063 C317.863,160.0063 319.515,159.1688 320.934,157.703 L319.352,155.7952 C318.328,156.7724 317.304,157.4936 315.746,157.4936 C313.186,157.4936 311.255,155.1903 311.255,151.6539 L311.255,151.5608 C311.255,148.0942 313.186,145.7677 315.746,145.7677 C317.211,145.7677 318.282,146.4656 319.235,147.3497 L320.864,145.2791 C319.538,144.0692 318.026,143.2549 315.746,143.2549 C311.534,143.2549 308.463,146.6285 308.463,151.5608 L308.463,151.7237 C308.463,156.7026 311.441,160.0063 315.606,160.0063 Z" id="Fill-40" fill="#FFFFFF"></path>
                <polygon id="Fill-41" fill="#FFFFFF" points="324.069 159.7737 334.446 159.7737 334.446 157.3308 326.745 157.3308 326.745 152.7939 333.469 152.7939 333.469 150.351 326.745 150.351 326.745 145.9305 334.33 145.9305 334.33 143.4876 324.069 143.4876"></polygon>
            </g>
        </g>
    </g>
</svg>

<svg width="335" height="182" xmlns="http://www.w3.org/2000/svg"><g id="UI-elements" fill="none" fill-rule="evenodd"><g id="Desktop-HD" transform="translate(-875 -51)"><g id="AHIC-logo-rev" transform="translate(875 51)"><path id="Fill-1" fill="#FFF" d="M153.454 181.905h1.292V0h-1.292z"/><path d="M50.986 160.03a4.538 4.538 0 0 1-3.436-1.573C23.8 130.918 2.477 100.159 38.612 30.688a.887.887 0 0 1 1.68.45c-4.523 69.948 30.679 93.96 44.33 128.892H50.986z" id="Fill-3" fill="#ED7F38"/><path d="M13.854 160.03a4.345 4.345 0 0 1-3.451-1.705c-11.38-14.948-16.498-31.795.87-70.892a.65.65 0 0 1 1.247.264c-.45 32.585 13.102 50.846 24.543 70.284a1.361 1.361 0 0 1-1.175 2.048H13.855z" id="Fill-4" fill="#951E5C"/><path d="M97.555 157.685a4.096 4.096 0 0 1-3.702 2.343c-8.657.002-36.147.002-36.147.002 18.423-38.04 31.077-79.984 2.426-142.246a.897.897 0 0 1 1.456-1.002c57.742 57.465 54.917 100.67 35.967 140.903z" id="Fill-5" fill="#348AA5"/><path d="M183.104 48.634h8.451l1.09-3.756h7.437l1.127 3.756h8.602l-9.09-26.444h-8.527l-9.09 26.444zm11.306-9.766l1.953-6.837 1.991 6.837h-3.944z" id="Fill-6" fill="#FFF"/><path id="Fill-7" fill="#FFF" d="M211.967 48.634h8.114v-9.616h6.348v9.616h8.114V22.34h-8.114v9.466h-6.348V22.34h-8.114z"/><path id="Fill-8" fill="#FFF" d="M238.648 48.634h8.114V22.34h-8.114z"/><path d="M262.327 49.16c5.109 0 8.227-2.404 10.142-5.221l-5.484-4.846c-.864 1.353-2.066 2.555-4.169 2.555-2.442 0-4.433-1.954-4.433-6.123v-.15c0-3.869 1.841-6.048 4.395-6.048 2.029 0 3.231 1.164 4.057 2.479l5.484-5.033c-2.103-3.005-5.221-4.959-9.691-4.959-6.874 0-12.509 5.222-12.509 13.41v.639c0 8.339 5.635 13.297 12.208 13.297z" id="Fill-9" fill="#FFF"/><path d="M184.038 82.229h2.722l1.349-3.839h6.328l1.35 3.839h2.815l-5.979-16.379h-2.606l-5.979 16.379zm4.909-6.236l2.326-6.537 2.327 6.537h-4.653z" id="Fill-10" fill="#FFF"/><path d="M201.704 82.229h2.699v-5.747h2.606c.046 0 .116 0 .162-.023l3.467 5.77h3.118l-3.839-6.305c1.977-.698 3.373-2.257 3.373-4.77v-.093c0-1.489-.488-2.722-1.349-3.583-.977-.977-2.49-1.535-4.351-1.535h-5.886v16.286zm2.699-8.167v-5.653h2.955c2.024 0 3.21.954 3.21 2.792v.046c0 1.699-1.163 2.815-3.257 2.815h-2.908z" id="Fill-11" fill="#FFF"/><path d="M216.562 82.229h2.723l1.349-3.839h6.328l1.35 3.839h2.815l-5.979-16.379h-2.606l-5.98 16.379zm4.91-6.236l2.326-6.537 2.327 6.537h-4.653z" id="Fill-12" fill="#FFF"/><path d="M234.229 82.229h5.979c3.467 0 5.793-1.582 5.793-4.444v-.093c0-2.187-1.303-3.257-3.094-3.886 1.233-.604 2.396-1.651 2.396-3.652v-.07c0-1.117-.372-2.024-1.093-2.745-.908-.908-2.397-1.396-4.165-1.396h-5.816v16.286zm8.375-11.657c0 1.513-1.14 2.304-2.908 2.304h-2.815v-4.514h2.978c1.745 0 2.745.791 2.745 2.164v.046zm.698 6.887v.047c0 1.489-1.163 2.303-3.024 2.303h-3.397v-4.653h3.28c2.048 0 3.141.884 3.141 2.303z" id="Fill-13" fill="#FFF"/><path id="Fill-14" fill="#FFF" d="M249.873 82.229h2.699V65.943h-2.699z"/><path d="M255.79 82.229h2.722l1.35-3.839h6.328l1.35 3.839h2.815l-5.98-16.379h-2.605l-5.98 16.379zm4.909-6.236l2.327-6.537 2.327 6.537h-4.654z" id="Fill-15" fill="#FFF"/><path id="Fill-16" fill="#FFF" d="M273.457 82.229h2.652V71.038l7.375 11.19h2.28V65.944h-2.629v10.865l-7.166-10.865h-2.512z"/><path id="Fill-17" fill="#FFF" d="M185.247 108.077h2.699v-6.933h6.398v6.933h2.699V91.791h-2.699v6.84h-6.398v-6.84h-2.699z"/><path d="M208.174 108.333c4.258 0 7.236-3.467 7.236-8.306v-.233c0-4.816-2.955-8.259-7.189-8.259-4.258 0-7.236 3.467-7.236 8.306v.233c0 4.816 2.955 8.259 7.189 8.259zm.047-2.49c-2.559 0-4.444-2.35-4.444-5.84v-.162c0-3.513 1.838-5.816 4.397-5.816 2.583 0 4.444 2.35 4.444 5.84v.162c0 3.513-1.838 5.817-4.397 5.817z" id="Fill-18" fill="#FFF"/><path id="Fill-19" fill="#FFF" d="M221.986 108.077h2.699V94.304h4.281V91.79h-11.261v2.513h4.281z"/><path id="Fill-20" fill="#FFF" d="M232.277 108.077h10.377v-2.443h-7.701v-4.537h6.724v-2.443h-6.724v-4.42h7.585V91.79h-10.261z"/><path id="Fill-21" fill="#FFF" d="M246.397 108.077h9.678v-2.49h-6.979V91.792h-2.699z"/><path id="Fill-22" fill="#FFF" d="M185.387 133.925h2.699V117.64h-2.699z"/><path id="Fill-23" fill="#FFF" d="M192.772 133.925h2.653v-11.19l7.375 11.19h2.28V117.64h-2.629v10.865l-7.166-10.865h-2.513z"/><path id="Fill-24" fill="#FFF" d="M213.835 134.018h2.49l5.63-16.379h-2.838l-4.002 12.308-4.002-12.308h-2.931z"/><path id="Fill-25" fill="#FFF" d="M225.057 133.925h10.377v-2.443h-7.701v-4.536h6.723v-2.443h-6.723v-4.42h7.584v-2.444h-10.26z"/><path d="M244.416 134.135c3.048 0 5.282-1.838 5.282-4.7v-.047c0-2.373-1.396-3.629-4.421-4.792-2.769-1.07-3.373-1.675-3.373-2.815v-.024c0-1.07.907-1.884 2.373-1.884 1.303 0 2.536.628 3.652 1.535l1.536-2.07c-1.489-1.303-3.234-1.908-5.119-1.908-3.024 0-5.165 1.884-5.165 4.56v.047c0 2.605 1.606 3.745 4.7 4.909 2.583.954 3.118 1.628 3.118 2.652v.023c0 1.21-1.001 2.07-2.56 2.07-1.721 0-3.071-.837-4.28-1.93l-1.629 2.024c1.768 1.629 3.792 2.35 5.886 2.35z" id="Fill-26" fill="#FFF"/><path id="Fill-27" fill="#FFF" d="M256.757 133.925h2.699v-13.773h4.281v-2.513h-11.261v2.513h4.281z"/><path id="Fill-28" fill="#FFF" d="M267.048 133.925h2.629v-11.47l4.304 7.492h.07l4.328-7.538v11.516h2.675V117.64h-2.838l-4.165 7.492-4.188-7.492h-2.815z"/><path id="Fill-29" fill="#FFF" d="M285.601 133.925h10.376v-2.443h-7.701v-4.536H295v-2.443h-6.724v-4.42h7.585v-2.444h-10.26z"/><path id="Fill-30" fill="#FFF" d="M299.85 133.925h2.652v-11.19l7.375 11.19h2.28V117.64h-2.629v10.865l-7.166-10.865h-2.512z"/><path id="Fill-31" fill="#FFF" d="M319.726 133.925h2.699v-13.773h4.281v-2.513h-11.261v2.513h4.281z"/><path d="M191.785 160.006c2.257 0 3.909-.837 5.328-2.303l-1.582-1.908c-1.024.977-2.047 1.699-3.606 1.699-2.559 0-4.491-2.304-4.491-5.84v-.093c0-3.467 1.932-5.793 4.491-5.793 1.466 0 2.536.698 3.49 1.582l1.628-2.07c-1.326-1.21-2.838-2.025-5.118-2.025-4.211 0-7.282 3.374-7.282 8.306v.163c0 4.979 2.978 8.282 7.142 8.282z" id="Fill-32" fill="#FFF"/><path d="M206.574 160.03c4.258 0 7.236-3.467 7.236-8.306v-.233c0-4.816-2.955-8.26-7.189-8.26-4.258 0-7.236 3.467-7.236 8.307v.232c0 4.816 2.955 8.26 7.189 8.26zm.047-2.49c-2.559 0-4.444-2.35-4.444-5.84v-.162c0-3.514 1.838-5.817 4.397-5.817 2.583 0 4.444 2.35 4.444 5.84v.163c0 3.513-1.838 5.816-4.397 5.816z" id="Fill-33" fill="#FFF"/><path id="Fill-34" fill="#FFF" d="M217.775 159.774h2.652v-11.191l7.376 11.19h2.28v-16.285h-2.629v10.865l-7.166-10.865h-2.513z"/><path id="Fill-35" fill="#FFF" d="M234.653 159.774h2.699v-6.747h6.654v-2.467h-6.654v-4.583h7.515v-2.49h-10.214z"/><path id="Fill-36" fill="#FFF" d="M248.142 159.774h10.376v-2.443h-7.701v-4.537h6.724v-2.443h-6.724v-4.42h7.585v-2.443h-10.26z"/><path d="M262.39 159.774h2.699v-5.747h2.606c.046 0 .116 0 .163-.023l3.466 5.77h3.118l-3.839-6.305c1.978-.698 3.374-2.257 3.374-4.77v-.093c0-1.489-.489-2.722-1.35-3.583-.977-.977-2.489-1.535-4.35-1.535h-5.887v16.286zm2.699-8.167v-5.653h2.955c2.024 0 3.211.954 3.211 2.792v.046c0 1.699-1.164 2.815-3.258 2.815h-2.908z" id="Fill-37" fill="#FFF"/><path id="Fill-38" fill="#FFF" d="M277.942 159.774h10.376v-2.443h-7.701v-4.537h6.724v-2.443h-6.724v-4.42h7.585v-2.443h-10.26z"/><path id="Fill-39" fill="#FFF" d="M292.191 159.774h2.652v-11.191l7.375 11.19h2.28v-16.285h-2.629v10.865l-7.166-10.865h-2.512z"/><path d="M315.606 160.006c2.257 0 3.909-.837 5.328-2.303l-1.582-1.908c-1.024.977-2.048 1.699-3.606 1.699-2.56 0-4.491-2.304-4.491-5.84v-.093c0-3.467 1.931-5.793 4.491-5.793 1.465 0 2.536.698 3.489 1.582l1.629-2.07c-1.326-1.21-2.838-2.025-5.118-2.025-4.212 0-7.283 3.374-7.283 8.306v.163c0 4.979 2.978 8.282 7.143 8.282z" id="Fill-40" fill="#FFF"/><path id="Fill-41" fill="#FFF" d="M324.069 159.774h10.377v-2.443h-7.701v-4.537h6.724v-2.443h-6.724v-4.42h7.585v-2.443h-10.261z"/></g></g></g></svg>
